src/16/panel/weather-windy.svg

<svg xmlns="http://www.w3.org/2000/svg" width="16" height="16" version="1.1">
 <defs>
  <style id="current-color-scheme" type="text/css">
   .ColorScheme-Text { color:#dfdfdf; } .ColorScheme-Highlight { color:#5294e2; }
  </style>
 </defs>
 <path style="fill:currentColor" class="ColorScheme-Text" d="M 8.0208,0 A 0.99921,1.0001 0 1 0 8.0208,2 C 8.0208,2 8.3062,2.013 8.5633,2.1426 8.8204,2.2721 9.0062,2.331 9.0062,3 9.0062,3.669 8.8204,3.7279 8.5633,3.8574 8.3062,3.987 8.0208,4 8.0208,4 H 1.0133 A 0.99921,1.0001 0 1 0 1.0133,6 H 8.0208 C 8.0208,6 8.7278,6.013 9.4629,5.6426 10.198,5.2721 11.004,4.331 11.004,3 11.004,1.669 10.198,0.72785 9.4629,0.35742 8.7278,-0.01301 8.0208,0 8.0208,0 Z M 13.016,3 A 0.99921,1.0001 0 1 0 13.016,5 C 13.016,5 13.302,5.013 13.559,5.1426 13.816,5.2721 14.002,5.331 14.002,6 14.002,6.669 13.816,6.7279 13.559,6.8574 13.302,6.987 13.016,7 13.016,7 H 5.0234 A 0.99921,1.0001 0 1 0 5.0234,9 H 13.016 C 13.016,9 13.723,9.013 14.458,8.6426 15.193,8.2721 16,7.331 16,6 16,4.669 15.193,3.7279 14.458,3.3574 13.723,2.987 13.016,3 13.016,3 Z M 1.0133,10 A 0.99921,1.0001 0 1 0 1.0133,12 H 8.0208 C 8.0208,12 8.3062,12.013 8.5633,12.143 8.8204,12.272 9.0062,12.331 9.0062,13 9.0062,13.669 8.8204,13.728 8.5633,13.857 8.3062,13.987 8.0208,14 8.0208,14 A 0.99921,1.0001 0 1 0 8.0208,16 C 8.0208,16 8.7278,16.013 9.4629,15.643 10.198,15.272 11.004,14.331 11.004,13 11.004,11.669 10.198,10.728 9.4629,10.357 8.7278,9.987 8.0208,10 8.0208,10 Z"/>
</svg>

<svg xmlns="http://www.w3.org/2000/svg" width="16" height="16"><defs><style id="current-color-scheme" type="text/css"></style></defs><path d="M8.02 0a1 1 0 1 0 0 2s.286.013.543.143c.257.13.443.188.443.857s-.186.728-.443.857c-.257.13-.542.143-.542.143H1.013a1 1 0 1 0 0 2h7.008s.707.013 1.442-.357S11.004 4.33 11.004 3c0-1.331-.806-2.272-1.541-2.643C8.728-.013 8.02 0 8.02 0zm4.996 3a1 1 0 1 0 0 2s.286.013.543.143c.257.13.443.188.443.857s-.186.728-.443.857c-.257.13-.543.143-.543.143H5.023a1 1 0 1 0 0 2h7.993s.707.013 1.442-.357S16 7.33 16 6c0-1.331-.807-2.272-1.542-2.643-.735-.37-1.442-.357-1.442-.357zM1.013 10a1 1 0 1 0 0 2h7.008s.285.013.542.143c.257.129.443.188.443.857s-.186.728-.443.857c-.257.13-.542.143-.542.143a1 1 0 1 0 0 2s.707.013 1.442-.357c.735-.371 1.541-1.312 1.541-2.643 0-1.331-.806-2.272-1.541-2.643C8.728 9.987 8.02 10 8.02 10z" fill="currentColor" color="#dfdfdf"/></svg>
